packages/icons/src/gcp-kms.svg

<svg viewBox="0 0 40 36" xmlns="http://www.w3.org/2000/svg"><path d="m39.5219 16.1625-8.2188-14.29375c-.309-.54811-.7559-1.005979-1.2964-1.328272-.5404-.322294-1.1557-.4978299-1.7848-.509228h-16.4406c-.6293.0110875-1.2446.186494-1.78513.508819-.5405.322325-.98733.780361-1.29616 1.328681l-8.221878 14.25625c-.312553.5439-.47703337 1.1602-.47703337 1.7875s.16448037 1.2436.47703337 1.7875l8.218748 14.375c.30578.5561.75024 1.0236 1.29016 1.3571.53996.3335 1.15696.5216 1.79106.546h16.4407c.634-.0217 1.2515-.2077 1.7922-.5396.5406-.332.9858-.7985 1.2921-1.3541l8.2188-14.2938c.3148-.5527.4803-1.1779.4803-1.814 0-.6362-.1655-1.2613-.4803-1.8141z" fill="#4285f4"/><path d="m29.0375 11.7781-9.2063-3.18435-8.1999 3.56245-.0688 2.4313v3.5625l.5656 3.1656.9594 2.2063 1.7562 3.3031 8.925 8.9875h4.4344c.633.0022 1.2554-.1628 1.8041-.4783.5488-.3155 1.0044-.7704 1.3209-1.3186l7.3125-12.6625z" opacity=".07"/><g fill="#fff"><path d="m20 18.4468c-.5421.0006-1.0721-.1595-1.5232-.4601-.451-.3006-.8028-.7283-1.0108-1.2288-.208-.5006-.2629-1.0516-.1577-1.5833.1051-.5318.3656-1.0204.7484-1.4041.3829-.3837.8709-.6453 1.4024-.7517.5315-.1063 1.0826-.0527 1.5837.1542.501.2069.9294.5576 1.2311 1.008.3016.4503.463.98.4636 1.5221 0 .7266-.2882 1.4235-.8014 1.9379s-1.2095.8042-1.9361.8058zm0-4.0625c-.2608 0-.5158.0774-.7327.2223s-.3859.3508-.4857.5918-.1259.5061-.075.762c.0508.2558.1764.4907.3609.6752.1844.1844.4194.31.6752.3609s.521.0248.7619-.0751c.241-.0998.447-.2688.5919-.4857.1449-.2168.2222-.4718.2222-.7326-.0016-.349-.1412-.6831-.3882-.9296-.2471-.2465-.5816-.3852-.9305-.386z"/><path d="m20 29.6563-.1688-.0406c-5.0625-1.2313-8.8937-6.3032-8.8937-11.8063v-6.0156l9.0625-4.025 9.0438 4.025v6.0187c0 5.4907-3.8157 10.5688-8.875 11.8032zm-7.625-16.9438v5.0969c0 4.7969 3.2656 9.2281 7.625 10.3844 4.375-1.1563 7.625-5.5875 7.625-10.3844v-5.0969l-7.625-3.39058z"/><path d="m20.7094 17.5688h-1.4188v6.9157h1.4188z"/><path d="m19.6938 20.0125h-2.575v1.4187h2.575z"/><path d="m20.2031 22.0437h-2.1438v1.4187h2.1438z"/></g></svg>

<svg viewBox="0 0 40 36" xmlns="http://www.w3.org/2000/svg">
<path d="M39.5219 16.1625L31.3031 1.86875C30.9941 1.32064 30.5472 0.862771 30.0067 0.540478C29.4663 0.218184 28.851 0.0426481 28.2219 0.03125H11.7813C11.152 0.0423375 10.5367 0.217744 9.99617 0.540069C9.45567 0.862394 9.00884 1.32043 8.70001 1.86875L0.478132 16.125C0.165579 16.6689 0.00109863 17.2852 0.00109863 17.9125C0.00109863 18.5398 0.165579 19.1561 0.478132 19.7L8.69688 34.075C9.00266 34.6311 9.44712 35.0986 9.98704 35.4321C10.527 35.7656 11.144 35.9537 11.7781 35.9781H28.2188C28.8528 35.9564 29.4703 35.7704 30.011 35.4385C30.5516 35.1065 30.9968 34.64 31.3031 34.0844L39.5219 19.7906C39.8367 19.2379 40.0022 18.6127 40.0022 17.9766C40.0022 17.3404 39.8367 16.7153 39.5219 16.1625Z" fill="#4285F4"/>
<path opacity="0.07" d="M29.0375 11.7781L19.8312 8.59375L11.6313 12.1562L11.5625 14.5875V18.15L12.1281 21.3156L13.0875 23.5219L14.8437 26.825L23.7687 35.8125H28.2031C28.8361 35.8147 29.4585 35.6497 30.0072 35.3342C30.556 35.0187 31.0116 34.5638 31.3281 34.0156L38.6406 21.3531L29.0375 11.7781Z" fill="black"/>
<path d="M20 18.4468C19.4579 18.4474 18.9279 18.2873 18.4768 17.9867C18.0258 17.6861 17.674 17.2584 17.466 16.7579C17.258 16.2573 17.2031 15.7063 17.3083 15.1746C17.4134 14.6428 17.6739 14.1542 18.0567 13.7705C18.4396 13.3868 18.9276 13.1252 19.4591 13.0188C19.9906 12.9125 20.5417 12.9661 21.0428 13.173C21.5438 13.3799 21.9722 13.7306 22.2739 14.181C22.5755 14.6313 22.7369 15.161 22.7375 15.7031C22.7375 16.4297 22.4493 17.1266 21.9361 17.641C21.4229 18.1554 20.7266 18.4452 20 18.4468ZM20 14.3843C19.7392 14.3843 19.4842 14.4617 19.2673 14.6066C19.0504 14.7515 18.8814 14.9574 18.7816 15.1984C18.6818 15.4394 18.6557 15.7045 18.7066 15.9604C18.7574 16.2162 18.883 16.4511 19.0675 16.6356C19.2519 16.82 19.4869 16.9456 19.7427 16.9965C19.9985 17.0474 20.2637 17.0213 20.5046 16.9214C20.7456 16.8216 20.9516 16.6526 21.0965 16.4357C21.2414 16.2189 21.3187 15.9639 21.3187 15.7031C21.3171 15.3541 21.1775 15.02 20.9305 14.7735C20.6834 14.527 20.3489 14.3883 20 14.3875V14.3843Z" fill="white"/>
<path d="M20 29.6563L19.8312 29.6157C14.7687 28.3844 10.9375 23.3125 10.9375 17.8094V11.7938L20 7.7688L29.0438 11.7938V17.8125C29.0438 23.3032 25.2281 28.3813 20.1688 29.6157L20 29.6563ZM12.375 12.7125V17.8094C12.375 22.6063 15.6406 27.0375 20 28.1938C24.375 27.0375 27.625 22.6063 27.625 17.8094V12.7125L20 9.32192L12.375 12.7125Z" fill="white"/>
<path d="M20.7094 17.5688H19.2906V24.4845H20.7094V17.5688Z" fill="white"/>
<path d="M19.6938 20.0125H17.1188V21.4312H19.6938V20.0125Z" fill="white"/>
<path d="M20.2031 22.0437H18.0593V23.4624H20.2031V22.0437Z" fill="white"/>
</svg>
